assets/img/icons/duotone-icons/Cooking/Knife#1.svg

<?xml version="1.0" encoding="UTF-8"?>
<svg width="24px" height="24px" viewBox="0 0 24 24" version="1.1" xmlns="http://www.w3.org/2000/svg" xmlns:xlink="http://www.w3.org/1999/xlink">
    <!-- Generator: Sketch 52.2 (67145) - http://www.bohemiancoding.com/sketch -->
    <title>Stockholm-icons / Cooking / Knife#1</title>
    <desc>Created with Sketch.</desc>
    <g id="Stockholm-icons-/-Cooking-/-Knife#1" stroke="none" stroke-width="1" fill="none" fill-rule="evenodd">
        <rect id="bound" x="0" y="0" width="24" height="24"></rect>
        <path d="M5.78248558,14.6464466 L6.48959236,15.3535534 C6.88011665,15.7440777 6.88011665,16.3772427 6.48959236,16.767767 L3.66116524,19.5961941 C3.27064094,19.9867184 2.63747596,19.9867184 2.24695167,19.5961941 L1.53984489,18.8890873 C1.1493206,18.498563 1.1493206,17.865398 1.53984489,17.4748737 L4.36827202,14.6464466 C4.75879631,14.2559223 5.39196129,14.2559223 5.78248558,14.6464466 Z" id="Rectangle-84" fill="#335EEA" opacity="0.3"></path>
        <path d="M6.48959236,12.5251263 L17.0961941,1.91852455 L22.0459415,6.86827202 C23.2175144,8.03984489 23.2175144,9.93933983 22.0459415,11.1109127 L15.6819805,17.4748737 C14.5104076,18.6464466 12.6109127,18.6464466 11.4393398,17.4748737 L6.48959236,12.5251263 Z M17.1568542,7.51471863 C17.7426407,6.92893219 17.7426407,5.97918472 17.1568542,5.39339828 C16.5710678,4.80761184 15.6213203,4.80761184 15.0355339,5.39339828 C14.4497475,5.97918472 14.4497475,6.92893219 15.0355339,7.51471863 C15.6213203,8.10050506 16.5710678,8.10050506 17.1568542,7.51471863 Z" id="Combined-Shape" fill="#335EEA"></path>
    </g>
</svg>

<svg width="24" height="24" viewBox="0 0 24 24" xmlns="http://www.w3.org/2000/svg"><g fill="none" fill-rule="evenodd"><path d="M0 0h24v24H0z"/><path d="M5.782 14.646l.708.708a1 1 0 010 1.414L3.66 19.596a1 1 0 01-1.414 0l-.707-.707a1 1 0 010-1.414l2.828-2.829a1 1 0 011.414 0z" fill="#335EEA" opacity=".3"/><path d="M6.49 12.525L17.096 1.92l4.95 4.95a3 3 0 010 4.242l-6.364 6.364a3 3 0 01-4.243 0l-4.95-4.95zm10.667-5.01a1.5 1.5 0 10-2.121-2.122 1.5 1.5 0 002.12 2.122z" fill="#335EEA"/></g></svg>
